X: 2390
T: Balancing In Bergen
R: reel
M: 4/4
K: Aminor
EBAE GEE2|GEGA BGAB|cEE2A3B|AGED EGcB|
AEE2 GEDE|GEGA BGAB|cEE2A3B|AGED EGG2|
EBAE GEE2|GEGA BGAB|cEE2A3B|AGED EGcB|
AEE2 GEE2|GEGA BGAB|c3de3d|cAAG EAA2||
eAA2 gedB|eAA2 AG (3Bcd|eAA2 eagf|eAfA gfeg|
eAA2 gedB|AEE2 AG (3Bcd|eAAG ED (3EFG|AcBG A2 (3Bcd|
eAA2 gedB|eAA2 AG (3Bcd|egg2 eaa2|egfa gfeg|
eAA2 GEE2|GEGA BGAB|c3de3d|cAAG EAA2||

